X:1
T:Long have we mourn'd - Webbe
T:#
%%score [ 1 2 3 ]
L:1/8
Q:1/4=140
M:4/4
K:Bb
V:1 treble nm="Alto" snm="A"
V:2 treble-8 nm="Tenor" snm="T"
V:3 bass nm="Bass" snm="B"
V:1
"^Long have we mourn'd""^Samuel Webbe \n(1740-1816)" F8 | E4 E4 | D6 D2 |: C4 D4 | E2 B,2 z4 | %5
w: Long|have we|mourn'd, O|Lord most|migh- ty,|
 z4 B,4 |[M:4/4] C6 C2 | B,2 B,2 E4- | E2 E2 D2 D2 | E6 C2 | D4 G4 | C2 C2 F4 | B,4 z4 |1 F8 | %14
w: But|heav'n and|earth shall now|* re- joice, re-|joice for|our sal-|va- tion is|nigh.|Long|
 E4 E4 | D6 D2 :|2 z8 | z8 | z8 |] %19
w: have we|mourn'd, O||||
V:2
 z8 | c8 | B4 B4 |: A6 A2 | G4 A4 | B2 F2 z4 |[M:4/4][K:treble-8] z4 F4 | G6 G2 | F2 F2 B4- | %9
w: |Long|have we|mourn'd, O|Lord most|migh- ty,|But|heav'n and|earth shall now|
 B2 B2 A2 A2 | B6 G2 | A4 d4 | G2 G2 c4 |1 F4 z4 | c8 | B4 B4 :|2 F4 z4 | z8 | z8 |] %19
w: * re- joice, re-|joice for|our sal|va- tion is|nigh.|Long|have we|nigh.|||
V:3
 z8 | z8 | z8 |: F,8 | E,4 E,4 | D,6 D,2 |[M:4/4] C,4 D,4 | E,2 B,,2 z4 | z4 B,,4 | C,6 C,2 | %10
w: |||Long|have we|mourn'd, O|Lord most|migh- ty,|But|heav'n and|
 B,,2 B,,2 E,4- | E,2 E,2 D,2 D,2 | E,6 C,2 |1 D,4 G,4 | C,2 C,2 F,4 | B,,4 z4 :|2 D,4 G,4 | %17
w: earth shall now|* re- joice, re-|joice for|our sal-|va- tion is|nigh.|our sal-|
 C,2 C,2 F,4 | B,,4 z4 |] %19
w: va- tion is|nigh.|

